src/sources/forus-platform/resources/_platform-common/assets/img/menu/icon-dropdown-sessions.svg

<svg width="32" height="32" viewBox="0 0 32 32" fill="none" xmlns="http://www.w3.org/2000/svg">
    <path fill-rule="evenodd" clip-rule="evenodd" d="M7.25002 16.0007C7.25002 11.1679 11.1675 7.25 16 7.25C20.8326 7.25 24.75 11.1679 24.75 16.0006C24.75 20.7804 20.9182 24.6651 16.1588 24.7499C15.7446 24.7573 15.4029 24.4275 15.3955 24.0134C15.3881 23.5992 15.7179 23.2575 16.132 23.2501C20.075 23.1798 23.25 19.961 23.25 16.0006C23.25 11.9962 20.004 8.75 16 8.75C11.996 8.75 8.75002 11.9962 8.75002 16.0007C8.75002 17.1839 8.9989 18.3135 9.84391 19.2355L11.2874 17.7432C11.481 17.5431 11.7696 17.4667 12.0368 17.5448C12.3041 17.6229 12.5061 17.8427 12.5615 18.1156L13.5351 22.9156C13.5844 23.1587 13.5103 23.4104 13.3372 23.5881C13.1641 23.7657 12.9144 23.8463 12.6701 23.8033L7.8701 22.9591C7.5968 22.911 7.37237 22.716 7.28668 22.452C7.20098 22.1881 7.26802 21.8984 7.46095 21.699L8.79944 20.3153C7.5651 19.0136 7.25002 17.4296 7.25002 16.0007ZM16 11.2507C16.4142 11.2507 16.75 11.5865 16.75 12.0007V15.69L18.9303 17.8703C19.2232 18.1632 19.2232 18.6381 18.9303 18.931C18.6375 19.2239 18.1626 19.2239 17.8697 18.931L15.4697 16.531C15.329 16.3904 15.25 16.1996 15.25 16.0007V12.0007C15.25 11.5865 15.5858 11.2507 16 11.2507ZM9.52128 21.7265L11.8463 22.1354L11.3747 19.8104L9.52128 21.7265Z" fill="#646F79"/>
</svg>

<svg width="32" height="32" fill="none" xmlns="http://www.w3.org/2000/svg"><path fill-rule="evenodd" clip-rule="evenodd" d="M7.25 16a8.75 8.75 0 1 1 8.909 8.75.75.75 0 0 1-.027-1.5A7.25 7.25 0 1 0 8.75 16c0 1.184.249 2.314 1.094 3.235l1.443-1.492a.75.75 0 0 1 1.274.373l.974 4.8a.75.75 0 0 1-.865.887l-4.8-.844a.75.75 0 0 1-.409-1.26l1.338-1.384C7.565 19.014 7.25 17.43 7.25 16.001ZM16 11.25a.75.75 0 0 1 .75.75v3.69l2.18 2.18a.75.75 0 0 1-1.06 1.061l-2.4-2.4a.75.75 0 0 1-.22-.53v-4a.75.75 0 0 1 .75-.75ZM9.521 21.728l2.325.408-.471-2.325-1.854 1.917Z" fill="#646F79"/></svg>
